X:602
T: Die heilige Odilchen (299), S. 618
N: T0489
O: Luxemburg
S: Singendes Volk, Esch-Alzette 1937 posth.]
N: Ettelbruck, hhh J.P. Neuen aus Esch-Alzette
R: geistliches Lied]
M: 3/4
L: 1/8
K: D
A2 | d4d2 | =cBA2B2 | =c4d2 | A4z2 |
=c4c2 | d3AA2 | _B2A2G2 | =F4
F2 | G4A2 | _BAG2=F2 | E2D2

@@@ Tune index: 8656
